X: 25751
T: Mary O'Neill's Fancy
R: reel
M: 4/4
K: Gmajor
d2Bd|:egdB ~G3B|D~G3 DGB2|dBAB ~G3A|Beed e2ge|
dBAB ~G3B|D~G3 DGB2|dBAB ~G3A|Beed e2ge|
d~B3 d2ge|d~B3 d2ge|d2 Bd ~g3d|egdB ~A3B|
d~B3 d2gf|edef ~g3a|b2af gfed|egfa g2z d:|

